public/svg/grafana.svg

<svg width="24" height="24" viewBox="0 0 24 24" fill="none" xmlns="http://www.w3.org/2000/svg">
<rect width="24" height="24" fill="#C4C4C4" fill-opacity="0.01"/>
<path d="M22.8224 10.5396C22.7832 10.1382 22.7177 9.67771 22.5869 9.16454C22.456 8.65796 22.2597 8.09875 21.9718 7.51979C21.6839 6.94084 21.3109 6.34215 20.8267 5.75662C20.6369 5.52636 20.4275 5.30267 20.205 5.08557C20.5388 3.75003 19.7993 2.59213 19.7993 2.59213C18.5234 2.51318 17.712 2.99344 17.411 3.21055C17.3586 3.19081 17.3128 3.1645 17.2605 3.14476C17.0446 3.05923 16.8221 2.97371 16.5865 2.90134C16.3575 2.82897 16.1219 2.76318 15.8798 2.70397C15.6377 2.64476 15.3956 2.5987 15.147 2.55923C15.1011 2.55265 15.0619 2.54607 15.0161 2.53949C14.4599 0.750006 12.8633 0 12.8633 0C11.0769 1.13817 10.7432 2.73028 10.7432 2.73028C10.7432 2.73028 10.7367 2.76318 10.7236 2.82239C10.6254 2.84871 10.5273 2.8816 10.4291 2.90792C10.2917 2.94739 10.1543 3.00002 10.0234 3.05265C9.88601 3.10529 9.75514 3.15792 9.61773 3.21713C9.34945 3.33555 9.08117 3.46713 8.81943 3.61187C8.56423 3.75661 8.31558 3.9145 8.07348 4.07898C8.04076 4.06582 8.00804 4.05266 8.00804 4.05266C5.53462 3.10529 3.34256 4.24345 3.34256 4.24345C3.13971 6.88821 4.33062 8.5527 4.56618 8.85533C4.50729 9.01981 4.45494 9.18428 4.4026 9.34876C4.21938 9.94745 4.08197 10.5593 3.9969 11.1975C3.98382 11.2896 3.97073 11.3817 3.96419 11.4738C1.67398 12.6119 1 14.9343 1 14.9343C2.90415 17.1383 5.12892 17.2764 5.12892 17.2764L5.13546 17.2699C5.41683 17.7765 5.74401 18.2567 6.11044 18.7107C6.26748 18.9015 6.42452 19.0791 6.59465 19.2567C5.90105 21.2567 6.69281 22.9146 6.69281 22.9146C8.81289 22.9936 10.2066 21.9804 10.5011 21.7502C10.7105 21.8225 10.9264 21.8883 11.1424 21.941C11.7967 22.112 12.4641 22.2107 13.1316 22.237C13.2952 22.2436 13.4653 22.2502 13.6289 22.2436H13.7074H13.7597H13.8644L13.9691 22.237V22.2436C14.9703 23.6778 16.7239 23.8818 16.7239 23.8818C17.9737 22.5594 18.0457 21.2436 18.0457 20.9607C18.0457 20.9607 18.0457 20.9541 18.0457 20.941C18.0457 20.9146 18.0457 20.9015 18.0457 20.9015C18.0457 20.8817 18.0457 20.862 18.0457 20.8423C18.3074 20.6581 18.5561 20.4607 18.7917 20.2436C19.289 19.7896 19.7274 19.2699 20.0938 18.7107C20.1265 18.658 20.1592 18.6054 20.192 18.5528C21.6053 18.6317 22.6065 17.6712 22.6065 17.6712C22.3709 16.1909 21.5334 15.4672 21.3567 15.3291C21.3567 15.3291 21.3501 15.3225 21.3371 15.3159C21.324 15.3093 21.324 15.3027 21.324 15.3027C21.3174 15.2962 21.3043 15.2896 21.2913 15.283C21.2978 15.1909 21.3043 15.1054 21.3109 15.0133C21.324 14.8554 21.324 14.6909 21.324 14.533V14.4146V14.3554V14.3225C21.324 14.283 21.324 14.2962 21.324 14.283L21.3174 14.1843L21.3109 14.0527C21.3109 14.0067 21.3043 13.9672 21.2978 13.9277C21.2913 13.8883 21.2913 13.8422 21.2847 13.8027L21.2716 13.6777L21.252 13.5527C21.2258 13.3883 21.1996 13.2304 21.1604 13.0659C21.0099 12.4277 20.7612 11.8225 20.4406 11.2764C20.1134 10.7303 19.7077 10.2501 19.2432 9.84218C18.7851 9.43428 18.2682 9.10533 17.7316 8.86191C17.1885 8.61849 16.6258 8.46059 16.063 8.38822C15.7817 8.34875 15.5003 8.33559 15.2189 8.34217H15.1142H15.0881C15.0815 8.34217 15.0488 8.34217 15.0553 8.34217H15.0095L14.9048 8.34875C14.8656 8.34875 14.8263 8.35533 14.7936 8.35533C14.6496 8.36849 14.5057 8.38822 14.3683 8.41454C13.8055 8.5198 13.2755 8.72375 12.8109 9.00665C12.3464 9.28955 11.9407 9.63823 11.6135 10.033C11.2863 10.4277 11.0311 10.8685 10.8544 11.3225C10.6778 11.7764 10.5796 12.2501 10.5534 12.704C10.5469 12.8159 10.5469 12.9343 10.5469 13.0462C10.5469 13.0725 10.5469 13.1054 10.5469 13.1317L10.5534 13.2238C10.56 13.2764 10.56 13.3356 10.5665 13.3883C10.5862 13.6185 10.632 13.8422 10.6909 14.0527C10.8152 14.4804 11.0115 14.8685 11.2536 15.1975C11.4957 15.5264 11.7902 15.7962 12.0977 16.0133C12.4052 16.2238 12.739 16.3751 13.0661 16.4738C13.3933 16.5725 13.7205 16.612 14.028 16.612C14.0673 16.612 14.1065 16.612 14.1393 16.612C14.1589 16.612 14.1785 16.612 14.1981 16.612C14.2178 16.612 14.2374 16.612 14.257 16.6054C14.2898 16.6054 14.3225 16.5988 14.3552 16.5988C14.3617 16.5988 14.3748 16.5988 14.3814 16.5922L14.4141 16.5857C14.4337 16.5857 14.4533 16.5791 14.473 16.5791C14.5122 16.5725 14.545 16.5659 14.5842 16.5593C14.6235 16.5528 14.6562 16.5462 14.6889 16.533C14.7609 16.5199 14.8263 16.4935 14.8918 16.4738C15.0226 16.4278 15.1535 16.3751 15.2647 16.3159C15.3825 16.2567 15.4872 16.1843 15.5919 16.1185C15.6181 16.0988 15.6508 16.0791 15.677 16.0528C15.7817 15.9672 15.8013 15.8093 15.7162 15.7041C15.6443 15.612 15.5134 15.5856 15.4087 15.6449C15.3825 15.658 15.3563 15.6712 15.3302 15.6843C15.2386 15.7304 15.147 15.7699 15.0488 15.8028C14.9506 15.8356 14.846 15.862 14.7413 15.8817C14.6889 15.8883 14.6366 15.8949 14.5777 15.9014C14.5515 15.9014 14.5253 15.908 14.4926 15.908C14.4664 15.908 14.4337 15.908 14.4141 15.908C14.3879 15.908 14.3617 15.908 14.3356 15.908C14.3028 15.908 14.2701 15.908 14.2374 15.9014C14.2374 15.9014 14.2178 15.9014 14.2309 15.9014H14.2178H14.1981C14.1851 15.9014 14.1654 15.9014 14.1523 15.8949C14.1196 15.8883 14.0935 15.8883 14.0607 15.8817C13.8186 15.8488 13.5765 15.7764 13.3475 15.6712C13.1119 15.5659 12.8895 15.4212 12.6866 15.237C12.4838 15.0527 12.3071 14.8356 12.1697 14.5856C12.0323 14.3356 11.9341 14.0593 11.8883 13.7698C11.8687 13.6251 11.8556 13.4738 11.8621 13.3291C11.8621 13.2896 11.8687 13.2501 11.8687 13.2106C11.8687 13.2238 11.8687 13.204 11.8687 13.204V13.1909V13.158C11.8687 13.1383 11.8752 13.1185 11.8752 13.0988C11.8818 13.0198 11.8949 12.9409 11.9079 12.8619C12.0192 12.2304 12.3333 11.6119 12.8175 11.1448C12.9418 11.0264 13.0727 10.9211 13.2101 10.8225C13.3475 10.7238 13.498 10.6382 13.655 10.5659C13.8121 10.4935 13.9691 10.4343 14.1393 10.3882C14.3028 10.3422 14.473 10.3159 14.6496 10.2961C14.7347 10.2896 14.8198 10.283 14.9114 10.283C14.9376 10.283 14.9506 10.283 14.9703 10.283H15.0423H15.0881C15.1077 10.283 15.0881 10.283 15.0946 10.283H15.1142L15.1862 10.2896C15.376 10.3027 15.5592 10.329 15.7424 10.3751C16.1088 10.454 16.4687 10.5922 16.8024 10.7764C17.4699 11.1514 18.0392 11.7304 18.386 12.4277C18.5626 12.7764 18.687 13.1514 18.7459 13.5396C18.7589 13.6383 18.772 13.7369 18.7786 13.8356L18.7851 13.908L18.7917 13.9804C18.7917 14.0067 18.7917 14.033 18.7917 14.0527C18.7917 14.0791 18.7917 14.1054 18.7917 14.1251V14.1909V14.2633C18.7917 14.3093 18.7851 14.3883 18.7851 14.4343C18.7786 14.5396 18.7655 14.6514 18.7524 14.7567C18.7393 14.862 18.7197 14.9672 18.7 15.0725C18.6804 15.1777 18.6542 15.283 18.6281 15.3817C18.5757 15.5856 18.5103 15.7896 18.4318 15.9935C18.2747 16.3883 18.0653 16.7699 17.8167 17.1186C17.3128 17.8159 16.6258 18.3817 15.8406 18.7436C15.4479 18.9212 15.0357 19.0528 14.6104 19.1186C14.401 19.158 14.1851 19.1778 13.9691 19.1844H13.9299H13.8972H13.8252H13.7205H13.6681C13.6943 19.1844 13.6616 19.1844 13.6616 19.1844H13.642C13.5242 19.1844 13.4129 19.1778 13.2952 19.1646C12.8371 19.1317 12.3856 19.0462 11.9407 18.9212C11.5022 18.7962 11.0769 18.6186 10.6712 18.408C9.86638 17.9738 9.14006 17.3817 8.57732 16.6646C8.29595 16.3093 8.0473 15.9212 7.84445 15.5199C7.64161 15.1185 7.47802 14.6909 7.36024 14.2633C7.24246 13.8291 7.17048 13.3883 7.13776 12.9409L7.13122 12.8554V12.8356V12.8159V12.7764V12.704V12.6843V12.658V12.6054V12.5001V12.4804C7.13122 12.4804 7.13122 12.4869 7.13122 12.4738V12.4343C7.13122 12.3817 7.13122 12.3225 7.13122 12.2698C7.13776 12.0527 7.15739 11.8225 7.18357 11.5988C7.20974 11.3751 7.249 11.1448 7.2948 10.9211C7.34061 10.6975 7.39296 10.4738 7.45839 10.2501C7.58272 9.80929 7.73976 9.38165 7.92298 8.98033C8.29595 8.17769 8.78017 7.46058 9.36254 6.88821C9.50649 6.74347 9.65699 6.61189 9.81403 6.48031C9.97108 6.35531 10.1347 6.23689 10.3048 6.12505C10.4684 6.0132 10.6451 5.91452 10.8217 5.82241C10.9068 5.77636 10.9984 5.73031 11.09 5.69083C11.1358 5.6711 11.1816 5.65136 11.2274 5.63162C11.2732 5.61189 11.319 5.59215 11.3648 5.57241C11.5481 5.49346 11.7378 5.42767 11.9341 5.36846C11.9799 5.3553 12.0323 5.34215 12.0781 5.32241C12.1239 5.30925 12.1762 5.29609 12.222 5.28294C12.3202 5.25662 12.4183 5.2303 12.5165 5.21057C12.5623 5.19741 12.6146 5.19083 12.667 5.17767C12.7193 5.16451 12.7651 5.15793 12.8175 5.14478C12.8698 5.1382 12.9156 5.12504 12.968 5.11846L13.04 5.1053L13.1185 5.09214C13.1708 5.08557 13.2166 5.07899 13.269 5.07241C13.3279 5.06583 13.3802 5.05925 13.4391 5.05267C13.4849 5.04609 13.5634 5.03951 13.6092 5.03293C13.642 5.02635 13.6812 5.02635 13.7139 5.01978L13.7859 5.0132L13.8186 5.00662H13.8579C13.9168 5.00004 13.9691 5.00004 14.028 4.99346L14.1131 4.98688C14.1131 4.98688 14.1458 4.98688 14.1196 4.98688H14.1393H14.1785C14.2243 4.98688 14.2767 4.9803 14.3225 4.9803C14.5122 4.97372 14.7085 4.97372 14.8983 4.9803C15.2778 4.99346 15.6508 5.03951 16.0107 5.1053C16.737 5.24346 17.4175 5.47373 18.0392 5.78294C18.6608 6.08557 19.2104 6.46058 19.6947 6.86847C19.7274 6.89479 19.7535 6.92111 19.7863 6.94742C19.8124 6.97374 19.8452 7.00005 19.8713 7.02637C19.9302 7.079 19.9826 7.13163 20.0415 7.18427C20.1003 7.2369 20.1527 7.28953 20.205 7.34216C20.2574 7.39479 20.3097 7.44743 20.3621 7.50664C20.5649 7.72374 20.7547 7.94085 20.9248 8.16454C21.2651 8.60533 21.5399 9.0527 21.7558 9.47376C21.7689 9.50007 21.782 9.52639 21.7951 9.55271C21.8082 9.57902 21.8213 9.60534 21.8344 9.63165C21.8605 9.68429 21.8867 9.73692 21.9063 9.78955C21.9325 9.84218 21.9521 9.88823 21.9783 9.94087C21.9979 9.9935 22.0241 10.0396 22.0438 10.0922C22.1223 10.2896 22.2008 10.4803 22.2597 10.658C22.3578 10.9475 22.4298 11.204 22.4887 11.4277C22.5083 11.5198 22.5934 11.579 22.685 11.5659C22.7832 11.5593 22.8551 11.4804 22.8551 11.3817C22.8617 11.1448 22.8551 10.8619 22.8224 10.5396Z" fill="url(#paint0_linear)"/>
<defs>
<linearGradient id="paint0_linear" x1="11.9276" y1="29.2433" x2="11.9276" y2="7.43654" gradientUnits="userSpaceOnUse">
<stop stop-color="#FFF100"/>
<stop offset="1" stop-color="#F05A28"/>
</linearGradient>
</defs>
</svg>

<svg xmlns="http://www.w3.org/2000/svg" width="24" height="24" fill="none" xmlns:v="https://vecta.io/nano"><path fill="#c4c4c4" fill-opacity=".01" d="M0 0h24v24H0z"/><path d="M22.822 10.54c-.039-.401-.105-.862-.235-1.375-.131-.507-.327-1.066-.615-1.645s-.661-1.178-1.145-1.763c-.19-.23-.399-.454-.622-.671.334-1.336-.406-2.493-.406-2.493-1.276-.079-2.087.401-2.388.618-.052-.02-.098-.046-.151-.066l-.674-.243-.707-.197-.733-.145-.131-.02C14.46.75 12.863 0 12.863 0c-1.786 1.138-2.12 2.73-2.12 2.73l-.02.092-.294.086c-.137.039-.275.092-.406.145l-.406.164-.798.395-.746.467-.065-.026c-2.473-.947-4.665.191-4.665.191-.203 2.645.988 4.309 1.224 4.612l-.164.493c-.183.599-.321 1.211-.406 1.849l-.033.276C1.674 12.612 1 14.934 1 14.934c1.904 2.204 4.129 2.342 4.129 2.342l.007-.006c.281.507.609.987.975 1.441l.484.546c-.694 2 .098 3.658.098 3.658 2.12.079 3.514-.934 3.808-1.164l.641.191a9.32 9.32 0 0 0 1.989.296l.497.007h.079.052.105l.105-.007v.007c1.001 1.434 2.755 1.638 2.755 1.638 1.25-1.322 1.322-2.638 1.322-2.921v-.059-.059a7.27 7.27 0 0 0 .746-.599c.497-.454.936-.974 1.302-1.533l.098-.158c1.413.079 2.415-.882 2.415-.882-.236-1.48-1.073-2.204-1.25-2.342 0 0-.007-.007-.02-.013-.02-.02-.033-.026-.046-.033l.02-.27c.013-.158.013-.322.013-.48v-.118-.059-.033-.04l-.007-.099-.006-.132c0-.046-.007-.085-.013-.125s-.006-.085-.013-.125l-.013-.125-.02-.125-.092-.487a6.49 6.49 0 0 0-.72-1.789c-.327-.546-.733-1.026-1.197-1.434a6.02 6.02 0 0 0-1.512-.98c-.543-.243-1.106-.401-1.669-.474a5.19 5.19 0 0 0-.844-.046h-.105-.026-.033-.046l-.105.007c-.039 0-.079.007-.111.007l-.425.059a4.64 4.64 0 0 0-1.557.592 4.79 4.79 0 0 0-1.197 1.026 4.7 4.7 0 0 0-.759 1.29 4.56 4.56 0 0 0-.301 1.382l-.006.342v.085l.006.092.013.164a3.62 3.62 0 0 0 .124.664 3.66 3.66 0 0 0 .563 1.145c.242.329.537.599.844.816.308.21.641.362.968.46s.654.138.962.138h.111.059c.02 0 .039 0 .059-.007.033 0 .066-.007.098-.007.007 0 .02 0 .026-.007l.033-.006c.02 0 .039-.007.059-.007l.111-.02a.48.48 0 0 0 .105-.026c.072-.013.137-.04.203-.059.131-.046.262-.099.373-.158.118-.059.223-.132.327-.197.026-.02.059-.039.085-.066.105-.086.124-.244.039-.349a.24.24 0 0 0-.308-.059l-.079.039c-.092.046-.183.086-.281.118a2.35 2.35 0 0 1-.307.079l-.164.02c-.026 0-.052.007-.085.007h-.079-.079c-.033 0-.066 0-.098-.007h-.02-.02c-.013 0-.033 0-.046-.007-.033-.007-.059-.007-.092-.013-.242-.033-.484-.105-.713-.21a2.5 2.5 0 0 1-.661-.434 2.52 2.52 0 0 1-.517-.651c-.137-.25-.236-.526-.281-.816a2.5 2.5 0 0 1-.026-.441c0-.04.007-.079.007-.119v-.02-.033c0-.02.006-.04.006-.059.007-.079.02-.158.033-.237.111-.632.425-1.25.91-1.717.124-.118.255-.224.393-.322a2.7 2.7 0 0 1 .445-.257c.157-.072.314-.132.484-.178.163-.046.334-.072.51-.092l.262-.013h.059.072.046.026l.072.007c.19.013.373.039.556.085a3.91 3.91 0 0 1 1.06.401c.668.375 1.237.954 1.584 1.651a3.69 3.69 0 0 1 .36 1.112l.033.296.006.072.007.072v.072.072.066.072l-.007.171-.033.322-.052.316-.072.309a5.54 5.54 0 0 1-.196.612 5.37 5.37 0 0 1-.615 1.125c-.504.697-1.191 1.263-1.976 1.625-.393.178-.805.309-1.23.375-.209.039-.425.059-.641.066h-.039-.033-.072-.105-.052c.026 0-.007 0-.007 0h-.02c-.118 0-.229-.007-.347-.02-.458-.033-.91-.118-1.354-.243-.438-.125-.864-.303-1.269-.513-.805-.434-1.531-1.026-2.094-1.743a6.79 6.79 0 0 1-.733-1.145c-.203-.401-.366-.829-.484-1.257a6.98 6.98 0 0 1-.222-1.322l-.007-.085v-.02-.02-.039-.072-.02-.026-.053-.105-.02-.046-.165l.052-.671.111-.678.164-.671a8.86 8.86 0 0 1 .465-1.27c.373-.803.857-1.52 1.44-2.092a6.66 6.66 0 0 1 .451-.408l.491-.355a5.07 5.07 0 0 1 .517-.303l.268-.132.137-.059.137-.059a5.31 5.31 0 0 1 .569-.204l.144-.046.144-.039.295-.072c.046-.013.098-.02.15-.033l.151-.033.15-.026.072-.013.079-.013.151-.02.17-.02.17-.02c.033-.007.072-.007.105-.013l.072-.007.033-.007h.039l.17-.013.085-.007h.007.02.039l.144-.007h.576c.379.013.752.059 1.112.125a7.84 7.84 0 0 1 2.029.678c.622.303 1.171.678 1.656 1.086l.092.079.085.079.17.158.163.158.157.164.563.658a8.49 8.49 0 0 1 .831 1.309l.039.079.039.079.072.158.072.151c.02.053.046.099.066.151l.216.566.229.77c.02.092.105.151.196.138.098-.007.17-.085.17-.184a6.55 6.55 0 0 0-.033-.842z" fill="url(#A)"/><defs><linearGradient id="A" x1="11.928" y1="29.243" x2="11.928" y2="7.437" gradientUnits="userSpaceOnUse"><stop stop-color="#fff100"/><stop offset="1" stop-color="#f05a28"/></linearGradient></defs></svg>
